src/assets/icons/cms.svg

<svg width="24" height="24" viewBox="0 0 24 24" fill="none" xmlns="http://www.w3.org/2000/svg" class="color-blue-gray-80"><path d="M12.0125 2.25C12.7465 2.25846 13.4776 2.34326 14.194 2.50304C14.5067 2.57279 14.7406 2.83351 14.7761 3.15196L14.9463 4.67881C15.0234 5.37986 15.6153 5.91084 16.3209 5.91158C16.5106 5.91188 16.6982 5.87238 16.8735 5.79483L18.2741 5.17956C18.5654 5.05159 18.9058 5.12136 19.1232 5.35362C20.1354 6.43464 20.8892 7.73115 21.328 9.14558C21.4226 9.45058 21.3137 9.78203 21.0567 9.9715L19.8152 10.8866C19.461 11.1468 19.2519 11.56 19.2519 11.9995C19.2519 12.4389 19.461 12.8521 19.816 13.1129L21.0585 14.0283C21.3157 14.2177 21.4246 14.5492 21.33 14.8543C20.8914 16.2685 20.138 17.5649 19.1264 18.6461C18.9092 18.8783 18.5691 18.9483 18.2778 18.8206L16.8715 18.2045C16.4691 18.0284 16.0071 18.0542 15.6268 18.274C15.2466 18.4937 14.9936 18.8812 14.9453 19.3177L14.7762 20.8444C14.7413 21.1592 14.5125 21.4182 14.2043 21.4915C12.7559 21.8361 11.2468 21.8361 9.79834 21.4915C9.49021 21.4182 9.26135 21.1592 9.22649 20.8444L9.05767 19.32C9.00808 18.8843 8.75465 18.498 8.37473 18.279C7.99481 18.06 7.53351 18.0343 7.13251 18.2094L5.72588 18.8256C5.43453 18.9533 5.09434 18.8833 4.87709 18.6509C3.86493 17.5685 3.1115 16.2705 2.67351 14.8548C2.57917 14.5499 2.68817 14.2186 2.94515 14.0293L4.18848 13.1133C4.54262 12.8531 4.75178 12.4399 4.75178 12.0005C4.75178 11.561 4.54262 11.1478 4.18802 10.8873L2.94547 9.97285C2.6881 9.78345 2.579 9.45178 2.67367 9.14658C3.11242 7.73215 3.86625 6.43564 4.87843 5.35462C5.0959 5.12236 5.43624 5.05259 5.72755 5.18056L7.12793 5.79572C7.53087 5.97256 7.99411 5.94585 8.37608 5.72269C8.7564 5.50209 9.00959 5.11422 9.05847 4.67764L9.22855 3.15196C9.26407 2.83335 9.49817 2.57254 9.81111 2.50294C10.5284 2.34342 11.2603 2.25865 12.0125 2.25ZM12.0127 3.7499C11.5586 3.75524 11.1059 3.79443 10.6581 3.86702L10.5492 4.84418C10.4474 5.75368 9.92034 6.56102 9.13072 7.01903C8.33628 7.48317 7.36767 7.53903 6.52489 7.16917L5.6266 6.77456C5.05467 7.46873 4.59945 8.25135 4.27883 9.09168L5.07662 9.67879C5.81543 10.2216 6.25178 11.0837 6.25178 12.0005C6.25178 12.9172 5.81543 13.7793 5.0774 14.3215L4.27835 14.9102C4.59869 15.752 5.05398 16.5361 5.62631 17.2316L6.53144 16.8351C7.36953 16.4692 8.33155 16.5227 9.12383 16.9794C9.91612 17.4361 10.4446 18.2417 10.5483 19.1526L10.6573 20.1365C11.5469 20.2878 12.4558 20.2878 13.3454 20.1365L13.4544 19.1527C13.5552 18.2421 14.0831 17.4337 14.8763 16.9753C15.6695 16.5168 16.6335 16.463 17.4731 16.8305L18.3775 17.2267C18.9493 16.5323 19.4044 15.7495 19.725 14.909L18.927 14.3211C18.1882 13.7783 17.7519 12.9162 17.7519 11.9995C17.7519 11.0827 18.1882 10.2206 18.9261 9.67847L19.723 9.09109C19.4024 8.25061 18.9471 7.46784 18.3751 6.77356L17.4786 7.16737C17.1133 7.32901 16.7181 7.4122 16.319 7.41158C14.8493 7.41004 13.6158 6.30355 13.4554 4.84383L13.3465 3.8667C12.901 3.7942 12.4529 3.75512 12.0127 3.7499ZM12 8.24995C14.0711 8.24995 15.75 9.92888 15.75 12C15.75 14.071 14.0711 15.75 12 15.75C9.92893 15.75 8.25 14.071 8.25 12C8.25 9.92888 9.92893 8.24995 12 8.24995ZM12 9.74995C10.7574 9.74995 9.75 10.7573 9.75 12C9.75 13.2426 10.7574 14.25 12 14.25C13.2426 14.25 14.25 13.2426 14.25 12C14.25 10.7573 13.2426 9.74995 12 9.74995Z" fill="currentColor"></path></svg>

<svg xmlns="http://www.w3.org/2000/svg" width="24" height="24" fill="none" class="color-blue-gray-80"><path fill="currentColor" d="M12.012 2.25c.734.008 1.466.093 2.182.253a.75.75 0 0 1 .582.649l.17 1.527a1.384 1.384 0 0 0 1.928 1.116l1.4-.615a.75.75 0 0 1 .85.174 9.793 9.793 0 0 1 2.204 3.792.75.75 0 0 1-.271.825l-1.242.916a1.38 1.38 0 0 0 .001 2.226l1.242.915a.75.75 0 0 1 .272.826 9.798 9.798 0 0 1-2.204 3.792.75.75 0 0 1-.848.175l-1.406-.617a1.38 1.38 0 0 0-1.927 1.114l-.169 1.526a.75.75 0 0 1-.572.647 9.518 9.518 0 0 1-4.406 0 .75.75 0 0 1-.572-.647l-.168-1.524a1.382 1.382 0 0 0-1.925-1.11l-1.407.616a.75.75 0 0 1-.849-.175 9.798 9.798 0 0 1-2.203-3.796.75.75 0 0 1 .271-.826l1.243-.916a1.38 1.38 0 0 0 0-2.226l-1.243-.914a.75.75 0 0 1-.271-.826 9.793 9.793 0 0 1 2.204-3.792.75.75 0 0 1 .85-.174l1.4.615a1.387 1.387 0 0 0 1.93-1.118l.17-1.526a.75.75 0 0 1 .583-.65c.717-.159 1.45-.243 2.201-.252Zm0 1.5a9.136 9.136 0 0 0-1.354.117l-.109.977A2.886 2.886 0 0 1 6.525 7.17l-.898-.394a8.293 8.293 0 0 0-1.348 2.317l.798.587a2.881 2.881 0 0 1 0 4.643l-.799.588c.32.842.776 1.626 1.348 2.322l.905-.397a2.882 2.882 0 0 1 4.017 2.318l.11.984c.889.15 1.798.15 2.687 0l.11-.984a2.881 2.881 0 0 1 4.018-2.322l.905.396a8.299 8.299 0 0 0 1.347-2.318l-.798-.588a2.88 2.88 0 0 1 0-4.643l.796-.587a8.293 8.293 0 0 0-1.348-2.317l-.896.393a2.884 2.884 0 0 1-4.023-2.324l-.11-.976a8.99 8.99 0 0 0-1.333-.117ZM12 8.25a3.75 3.75 0 1 1 0 7.5 3.75 3.75 0 0 1 0-7.5Zm0 1.5a2.25 2.25 0 1 0 0 4.5 2.25 2.25 0 0 0 0-4.5Z"/></svg>
